src/images/v2/pencil-blue.svg

<svg fill="none" height="24" viewBox="0 0 24 24" width="24" xmlns="http://www.w3.org/2000/svg"><path d="m16.1038 4.66848c.212-.21194.4636-.38005.7405-.49475s.5737-.17373.8734-.17373.5965.05903.8734.17373.5285.28281.7404.49475c.212.21193.3801.46353.4948.74043.1147.27691.1737.57369.1737.87341s-.059.5965-.1737.87341c-.1147.2769-.2828.5285-.4948.74044l-10.89343 10.89343-4.43807 1.2104 1.21038-4.4381z" stroke="#12c3f4" stroke-linecap="round" stroke-linejoin="round" stroke-width="2"/></svg>

<svg width="24" height="24" viewBox="0 0 24 24" fill="none" xmlns="http://www.w3.org/2000/svg">
<path d="M16.1038 4.66848C16.3158 4.45654 16.5674 4.28843 16.8443 4.17373C17.1212 4.05903 17.418 4 17.7177 4C18.0174 4 18.3142 4.05903 18.5911 4.17373C18.868 4.28843 19.1196 4.45654 19.3315 4.66848C19.5435 4.88041 19.7116 5.13201 19.8263 5.40891C19.941 5.68582 20 5.9826 20 6.28232C20 6.58204 19.941 6.87882 19.8263 7.15573C19.7116 7.43263 19.5435 7.68423 19.3315 7.89617L8.43807 18.7896L4 20L5.21038 15.5619L16.1038 4.66848Z" stroke="#12C3F4" stroke-width="2" stroke-linecap="round" stroke-linejoin="round"/>
</svg>
